dist/images/6_oportunidades.svg

<svg id="icons" xmlns="http://www.w3.org/2000/svg" viewBox="0 0 10 10"><style>.st0{fill:#f8f9fa}</style><title>Prancheta 2 cópia 3</title><path class="st0" d="M6.9 4.7H3.1v.2h3.8z"/><path class="st0" d="M7.9 7.3V3H5v.2h2.7v3.9H6.4v1.3H2.3V3.3h.8V3h-1v5.7h4.4l1.4-1.4zm-1.3 0h1l-1 1v-1z"/><path transform="rotate(-45.001 3.164 3.786)" class="st0" d="M2.7 3.7h.9v.2h-.9z"/><path class="st0" d="M3.1 5.7h3.7v.2H3.1zm0 1.1H5V7H3.1zm1.7-5.5l-.9.9-1 .3 1.6 1.6.3-1 .9-.9-.9-.9zm-.4 2.4L3.3 2.6l.7-.2.6.6-.2.7zm.3-.8l-.6-.6.7-.7.6.6-.7.7z"/></svg>

<?xml version="1.0" encoding="utf-8"?>
<!-- Generator: Adobe Illustrator 21.1.0, SVG Export Plug-In . SVG Version: 6.00 Build 0)  -->
<svg version="1.1" id="icons" xmlns="http://www.w3.org/2000/svg" xmlns:xlink="http://www.w3.org/1999/xlink" x="0px" y="0px"
	 viewBox="0 0 10 10" style="enable-background:new 0 0 10 10;" xml:space="preserve">
<style type="text/css">
	.st0{fill:#F8F9FA;}
</style>
<title>Prancheta 2 cópia 3</title>
<polygon class="st0" points="6.9,4.7 3.1,4.7 3.1,4.9 6.9,4.9 "/>
<path class="st0" d="M7.9,7.3V3H5v0.2h2.7v3.9H6.4v1.3H2.3V3.3h0.8V3h-1v5.7h4.4L7.9,7.3z M6.6,7.3h1l-1,1V7.3z"/>
<rect x="2.7" y="3.7" transform="matrix(0.7071 -0.7071 0.7071 0.7071 -1.75 3.3463)" class="st0" width="0.9" height="0.2"/>
<rect x="3.1" y="5.7" class="st0" width="3.7" height="0.2"/>
<rect x="3.1" y="6.8" class="st0" width="1.9" height="0.2"/>
<path class="st0" d="M4.8,1.3L3.9,2.2l-1,0.3l1.6,1.6l0.3-1l0.9-0.9L4.8,1.3z M4.4,3.7L3.3,2.6l0.7-0.2L4.6,3L4.4,3.7z M4.7,2.9
	L4.1,2.3l0.7-0.7l0.6,0.6L4.7,2.9z"/>
</svg>
